src/outline-md/md-home.svg

<svg width="24" height="24" viewBox="0 0 24 24" fill="none" xmlns="http://www.w3.org/2000/svg">
<path d="M3 12L5 10M5 10L12 3L19 10M5 10V20C5 20.5523 5.44772 21 6 21H9M19 10L21 12M19 10V20C19 20.5523 18.5523 21 18 21H15M9 21C9.55228 21 10 20.5523 10 20V16C10 15.4477 10.4477 15 11 15H13C13.5523 15 14 15.4477 14 16V20C14 20.5523 14.4477 21 15 21M9 21H15" stroke="#4A5568" stroke-width="2" stroke-linecap="round" stroke-linejoin="round"/>
</svg>

<svg xmlns="http://www.w3.org/2000/svg" viewbox="0 0 24 24" height="24" width="24">
  <path d="M3 12l2-2m14 0l2 2M9 21a1 1 0 0 0 1-1v-4a1 1 0 0 1 1-1h2a1 1 0 0 1 1 1v4a1 1 0 0 0 1 1" fill="none" stroke="currentColor" stroke-width="2" stroke-linecap="round" stroke-linejoin="round"/>
  <path d="M5 10l7-7 7 7m0 0v10a1 1 0 0 1-1 1H6a1 1 0 0 1-1-1V10" fill="none" stroke="currentColor" stroke-width="2" stroke-linecap="round" stroke-linejoin="round"/>
</svg>
